X: 541
T: Durham's Reel
C:Traditional, Arr. Herschel Sizemore
B: jims roots
M:4/4
L:1/8
Q: 1/4=100
K:A
V:1 
%480
|: "A"A,B,CE FECE | AECE FECE | "D"DEFA BAFA | dAFA BAFA |
"E"EFGB cBGB | eBGB cBGF | EFGA BABc |[1 A"A"Bce a4:|[2 A"A"Bce a2ab||
c'"A"abc' ae=gf | eaed cBAd | "D"fdef eA=cB | AGFE D2DE |
"B"FABc ^defg | afga fB^df | "E"ed^de eeef | gbgf e4|]
% abcbook-tune_id 6298c25da4d5f09a5de08d75


% abcbook-boost 0
% abcbook-tablature 
% abcbook-transpose 
% abcbook-lastupdated 1654178397774
% abcbook-soundfonts 
% abcbook-repeats 1


